src/components/Footer/images/logo-9.svg

<svg xmlns="http://www.w3.org/2000/svg" width="470" height="262" fill="none"><path fill="#2C2C2C" d="M122.661 103.235H88v13.757h18.293a39.895 39.895 0 0 1 16.368-13.757Z"/><path fill="#2C2C2C" d="m101.813 137.677-.038 20.56h13.752l.021-19.846a23.604 23.604 0 0 1 13.762-21.364v-13.813a37.519 37.519 0 0 0-27.497 34.463ZM143.235 124.772h-13.928v10.311h13.928v-10.311ZM368.368 103c-4.665 0-7.94 2.257-10.919 4.73l-2.141 3.07-.777-.545 2.616-4.416v-2.604h-16.663v55.002h15.129v-35.008c0-5.671 3.804-7.486 6.42-7.819 2.488-.318 5.683 1.063 5.683 4.162v38.665h15.127v-38.028c0-11.752-5.32-17.209-14.456-17.209M199.841 146.412H215.7v11.818h-30.954v-54.995h15.095v43.177ZM148.514 158.23h30.953v-10.803h-15.858v-12.306h15.858v-10.313h-15.858v-10.346h15.858v-11.229h-30.953v54.997ZM220.979 158.23h30.953v-10.803h-15.858v-12.306h15.858v-10.313h-15.858v-10.346h15.858v-11.229h-30.953v54.997ZM304.328 158.23h30.953v-10.803h-15.858v-12.306h15.858v-10.313h-15.858v-10.346h15.858v-11.229h-30.953v54.997ZM284.703 103.233l-.003.024-5.826 34.853-.423 5.997-.043.557h-.554l-.042-.557-.426-5.997-5.824-34.853-.004-.024h-15.195l12.527 54.997h18.481l12.529-54.997h-15.197ZM388.607 151.479a3.416 3.416 0 0 1 2.484 5.817 3.412 3.412 0 0 1-3.732.76 3.413 3.413 0 0 1-2.117-3.167 3.401 3.401 0 0 1 3.365-3.41Zm0 6.156a2.745 2.745 0 1 0-2.645-2.746 2.656 2.656 0 0 0 .744 1.93 2.668 2.668 0 0 0 1.901.816Zm-.424-.915h-.713v-3.714h1.284a1.18 1.18 0 0 1 1.154.701c.066.146.101.304.104.464a1.153 1.153 0 0 1-.813 1.101l.832 1.45h-.804l-.777-1.386h-.276l.009 1.384Zm.476-1.998c.416 0 .647-.202.647-.544s-.238-.564-.647-.564h-.476v1.108h.476Z"/></svg>

<svg width="470" height="262" viewBox="0 0 470 262" fill="none" xmlns="http://www.w3.org/2000/svg">
<path d="M122.661 103.235H88V116.992H106.293C110.396 111.002 116.055 106.246 122.661 103.235Z" fill="white"/>
<path d="M101.813 137.677L101.775 158.237H115.527L115.548 138.391C115.566 133.888 116.87 129.484 119.309 125.699C121.747 121.914 125.217 118.905 129.31 117.027V103.214C121.675 105.32 114.903 109.789 109.964 115.98C105.025 122.171 102.172 129.766 101.813 137.677Z" fill="white"/>
<path d="M143.235 124.772H129.307V135.083H143.235V124.772Z" fill="white"/>
<path d="M368.368 103C363.703 103 360.428 105.257 357.449 107.73L355.308 110.8L354.531 110.255L357.147 105.839V103.235H340.484V158.237H355.613V123.229C355.613 117.558 359.417 115.743 362.033 115.41C364.521 115.092 367.716 116.473 367.716 119.572V158.237H382.843V120.209C382.843 108.457 377.523 103 368.387 103" fill="white"/>
<path d="M199.841 146.412H215.7V158.23H184.746V103.235H199.841V146.412Z" fill="white"/>
<path d="M148.514 158.23H179.467V147.427H163.609V135.121H179.467V124.808H163.609V114.462H179.467V103.233H148.514V158.23Z" fill="white"/>
<path d="M220.979 158.23H251.932V147.427H236.074V135.121H251.932V124.808H236.074V114.462H251.932V103.233H220.979V158.23Z" fill="white"/>
<path d="M304.328 158.23H335.281V147.427H319.423V135.121H335.281V124.808H319.423V114.462H335.281V103.233H304.328V158.23Z" fill="white"/>
<path d="M284.703 103.233L284.7 103.257L278.874 138.11L278.451 144.107L278.408 144.664H277.854L277.812 144.107L277.386 138.11L271.562 103.257L271.558 103.233H256.363L268.89 158.23H287.371L299.9 103.233H284.703Z" fill="white"/>
<path d="M388.607 151.479C389.285 151.469 389.951 151.66 390.52 152.03C391.089 152.399 391.535 152.93 391.801 153.553C392.068 154.177 392.143 154.866 392.016 155.533C391.89 156.199 391.568 156.813 391.091 157.296C390.615 157.779 390.005 158.109 389.341 158.244C388.676 158.379 387.986 158.314 387.359 158.056C386.731 157.798 386.195 157.359 385.818 156.795C385.441 156.231 385.241 155.567 385.242 154.889C385.24 153.992 385.592 153.13 386.223 152.492C386.853 151.853 387.71 151.489 388.607 151.479ZM388.607 157.635C389.153 157.655 389.693 157.512 390.157 157.222C390.621 156.933 390.989 156.512 391.212 156.013C391.435 155.514 391.504 154.959 391.41 154.421C391.316 153.882 391.063 153.384 390.683 152.99C390.304 152.596 389.816 152.324 389.281 152.21C388.746 152.095 388.19 152.143 387.682 152.347C387.175 152.551 386.74 152.902 386.434 153.355C386.127 153.808 385.963 154.342 385.962 154.889C385.951 155.244 386.011 155.598 386.139 155.929C386.267 156.261 386.459 156.563 386.706 156.819C386.952 157.075 387.247 157.279 387.574 157.42C387.9 157.56 388.251 157.633 388.607 157.635ZM388.183 156.72H387.47V153.006H388.754C388.914 152.996 389.074 153.019 389.225 153.073C389.376 153.128 389.514 153.211 389.631 153.32C389.749 153.429 389.843 153.561 389.908 153.707C389.974 153.853 390.009 154.011 390.012 154.171C390.012 154.417 389.933 154.657 389.787 154.855C389.64 155.054 389.434 155.199 389.199 155.272L390.031 156.722H389.227L388.45 155.336H388.174L388.183 156.72ZM388.659 154.722C389.075 154.722 389.306 154.52 389.306 154.178C389.306 153.836 389.068 153.614 388.659 153.614H388.183V154.722H388.659Z" fill="white"/>
</svg>
